X: 29530
T: No Matter The Wreckage
R: hornpipe
M: 4/4
K: Gdorian
DC|:B,DGA BcdB|ABcA G2 AF|DE F2 EF G2|EDCE D2 DC|
B,DGA BcdB|ABcA B2 Bc|dBcA BAGF|1 DFGA G2 DC:|2 DFGA G2 df||
|:gfga gfde|fefg f2 cd|_e2 ed cBAG|FDCD F2 df|
gfga gfde|fefg f2 cd|_edcB BAGF|DFGA G2 df:|

